src/static/logos/google-plus.svg

<svg width="256" height="258" xmlns="http://www.w3.org/2000/svg" preserveAspectRatio="xMidYMid"><defs><filter x="-50%" y="-50%" width="200%" height="200%" filterUnits="objectBoundingBox" id="a"><feOffset dy="2" in="SourceAlpha" result="shadowOffsetOuter1"/><feGaussianBlur stdDeviation="1" in="shadowOffsetOuter1" result="shadowBlurOuter1"/><feColorMatrix values="0 0 0 0 0 0 0 0 0 0 0 0 0 0 0 0 0 0 0.168 0" in="shadowBlurOuter1" result="shadowMatrixOuter1"/><feOffset in="SourceAlpha" result="shadowOffsetOuter2"/><feGaussianBlur stdDeviation="1" in="shadowOffsetOuter2" result="shadowBlurOuter2"/><feColorMatrix values="0 0 0 0 0 0 0 0 0 0 0 0 0 0 0 0 0 0 0.084 0" in="shadowBlurOuter2" result="shadowMatrixOuter2"/><feMerge><feMergeNode in="shadowMatrixOuter1"/><feMergeNode in="shadowMatrixOuter2"/><feMergeNode in="SourceGraphic"/></feMerge></filter></defs><g fill="none" transform="translate(2 2)"><rect fill="#DC4E41" filter="url(#a)" width="252" height="252" rx="7"/><path d="M100.8 119.7v15.12h25.011c-1.008 6.489-7.56 19.026-25.011 19.026-15.057 0-27.342-12.474-27.342-27.846S85.743 98.154 100.8 98.154c8.568 0 14.301 3.654 17.577 6.804l11.97-11.529C122.661 86.247 112.707 81.9 100.8 81.9c-24.381 0-44.1 19.719-44.1 44.1s19.719 44.1 44.1 44.1c25.452 0 42.336-17.892 42.336-43.092 0-2.898-.315-5.103-.693-7.308H100.8z" fill="#FFF"/><path d="M100.8 120.456h41.643c.441 2.079.693 4.284.693 6.93v-.441c0-2.898-.315-5.103-.693-7.308H100.8v.819zm0-37.8c11.655 0 21.483 4.221 29.043 11.151l.441-.441C122.661 86.247 112.707 81.9 100.8 81.9c-24.381 0-44.1 19.719-44.1 44.1v.378c.252-24.129 19.908-43.722 44.1-43.722zm0 71.946c17.451 0 24.003-12.474 25.011-19.026h-.189c-1.386 6.678-8.001 18.207-24.822 18.207-14.931 0-27.09-12.285-27.279-27.405 0 .126-.063.252-.063.378 0 15.372 12.285 27.846 27.342 27.846z" opacity=".4" fill="#FFF"/><path d="M100.8 98.154c-15.057 0-27.342 12.474-27.342 27.846 0 .126.063.252.063.378.189-15.183 12.348-27.405 27.279-27.405 8.568 0 14.301 3.654 17.577 6.804l11.97-11.529c-.126-.126-.315-.252-.441-.378l-11.529 11.151c-3.276-3.15-9.009-6.867-17.577-6.867zm0 36.666v.756h24.822c.063-.252.126-.567.189-.756H100.8z" opacity=".1" fill="#3E2723"/><path d="M100.8 170.1c-24.192 0-43.848-19.53-44.1-43.722v.378c0 24.381 19.719 44.1 44.1 44.1 25.452 0 42.336-17.892 42.336-43.092v-.378c-.189 25.011-17.01 42.714-42.336 42.714z" opacity=".1" fill="#3E2723"/><path d="M195.3 119.7h-12.6v-12.6h-12.6v12.6h-12.6v12.6h12.6v12.6h12.6v-12.6h12.6" fill="#FFF"/><path d="M182.7 119.7h12.6v.756h-12.6v-.756zm-12.6-12.6h12.6v.756h-12.6v-.756zm-12.6 12.6h12.6v.756h-12.6v-.756z" opacity=".4" fill="#FFF"/><path d="M157.5 132.3h12.6v.756h-12.6v-.756zm25.2 0h12.6v.756h-12.6v-.756zm-12.6 12.6h12.6v.756h-12.6v-.756z" opacity=".1" fill="#3E2723"/><path d="M25.2 25.2h201.6v201.6H25.2V25.2z"/></g></svg>

<?xml version="1.0" encoding="UTF-8" standalone="no"?>
<svg width="256px" height="258px" viewBox="0 0 256 258" version="1.1" xmlns="http://www.w3.org/2000/svg" xmlns:xlink="http://www.w3.org/1999/xlink" preserveAspectRatio="xMidYMid">
    <defs>
        <filter x="-50%" y="-50%" width="200%" height="200%" filterUnits="objectBoundingBox" id="filter-1">
            <feOffset dx="0" dy="2" in="SourceAlpha" result="shadowOffsetOuter1"></feOffset>
            <feGaussianBlur stdDeviation="1" in="shadowOffsetOuter1" result="shadowBlurOuter1"></feGaussianBlur>
            <feColorMatrix values="0 0 0 0 0   0 0 0 0 0   0 0 0 0 0  0 0 0 0.168 0" in="shadowBlurOuter1" type="matrix" result="shadowMatrixOuter1"></feColorMatrix>
            <feOffset dx="0" dy="0" in="SourceAlpha" result="shadowOffsetOuter2"></feOffset>
            <feGaussianBlur stdDeviation="1" in="shadowOffsetOuter2" result="shadowBlurOuter2"></feGaussianBlur>
            <feColorMatrix values="0 0 0 0 0   0 0 0 0 0   0 0 0 0 0  0 0 0 0.084 0" in="shadowBlurOuter2" type="matrix" result="shadowMatrixOuter2"></feColorMatrix>
            <feMerge>
                <feMergeNode in="shadowMatrixOuter1"></feMergeNode>
                <feMergeNode in="shadowMatrixOuter2"></feMergeNode>
                <feMergeNode in="SourceGraphic"></feMergeNode>
            </feMerge>
        </filter>
    </defs>
	<g fill="none" transform="translate(2.000000, 2.000000)">
		<rect fill="#DC4E41" filter="url(#filter-1)" x="0" y="0" width="252" height="252" rx="7"></rect>
		<path d="M100.8,119.7 L100.8,134.82 L125.811,134.82 C124.803,141.309 118.251,153.846 100.8,153.846 C85.743,153.846 73.458,141.372 73.458,126 C73.458,110.628 85.743,98.154 100.8,98.154 C109.368,98.154 115.101,101.808 118.377,104.958 L130.347,93.429 C122.661,86.247 112.707,81.9 100.8,81.9 C76.419,81.9 56.7,101.619 56.7,126 C56.7,150.381 76.419,170.1 100.8,170.1 C126.252,170.1 143.136,152.208 143.136,127.008 C143.136,124.11 142.821,121.905 142.443,119.7 L100.8,119.7 L100.8,119.7 Z" fill="#FFFFFF"></path>
		<path d="M100.8,120.456 L142.443,120.456 C142.884,122.535 143.136,124.74 143.136,127.386 L143.136,126.945 C143.136,124.047 142.821,121.842 142.443,119.637 L100.8,119.637 L100.8,120.456 L100.8,120.456 Z M100.8,82.656 C112.455,82.656 122.283,86.877 129.843,93.807 L130.284,93.366 C122.661,86.247 112.707,81.9 100.8,81.9 C76.419,81.9 56.7,101.619 56.7,126 L56.7,126.378 C56.952,102.249 76.608,82.656 100.8,82.656 L100.8,82.656 Z M100.8,154.602 C118.251,154.602 124.803,142.128 125.811,135.576 L125.622,135.576 C124.236,142.254 117.621,153.783 100.8,153.783 C85.869,153.783 73.71,141.498 73.521,126.378 C73.521,126.504 73.458,126.63 73.458,126.756 C73.458,142.128 85.743,154.602 100.8,154.602 L100.8,154.602 Z" opacity="0.4" fill="#FFFFFF"></path>
		<path d="M100.8,98.154 C85.743,98.154 73.458,110.628 73.458,126 C73.458,126.126 73.521,126.252 73.521,126.378 C73.71,111.195 85.869,98.973 100.8,98.973 C109.368,98.973 115.101,102.627 118.377,105.777 L130.347,94.248 C130.221,94.122 130.032,93.996 129.906,93.87 L118.377,105.021 C115.101,101.871 109.368,98.154 100.8,98.154 L100.8,98.154 Z M100.8,134.82 L100.8,135.576 L125.622,135.576 C125.685,135.324 125.748,135.009 125.811,134.82 L100.8,134.82 L100.8,134.82 Z" opacity="0.1" fill="#3E2723"></path>
		<path d="M100.8,170.1 C76.608,170.1 56.952,150.57 56.7,126.378 L56.7,126.756 C56.7,151.137 76.419,170.856 100.8,170.856 C126.252,170.856 143.136,152.964 143.136,127.764 L143.136,127.386 C142.947,152.397 126.126,170.1 100.8,170.1 L100.8,170.1 Z" opacity="0.1" fill="#3E2723"></path>
		<path d="M195.3,119.7 L182.7,119.7 L182.7,107.1 L170.1,107.1 L170.1,119.7 L157.5,119.7 L157.5,132.3 L170.1,132.3 L170.1,144.9 L182.7,144.9 L182.7,132.3 L195.3,132.3" fill="#FFFFFF"></path>
		<path d="M182.7,119.7 L195.3,119.7 L195.3,120.456 L182.7,120.456 L182.7,119.7 Z M170.1,107.1 L182.7,107.1 L182.7,107.856 L170.1,107.856 L170.1,107.1 Z M157.5,119.7 L170.1,119.7 L170.1,120.456 L157.5,120.456 L157.5,119.7 Z" opacity="0.4" fill="#FFFFFF"></path>
		<path d="M157.5,132.3 L170.1,132.3 L170.1,133.056 L157.5,133.056 L157.5,132.3 Z M182.7,132.3 L195.3,132.3 L195.3,133.056 L182.7,133.056 L182.7,132.3 Z M170.1,144.9 L182.7,144.9 L182.7,145.656 L170.1,145.656 L170.1,144.9 Z" opacity="0.1" fill="#3E2723"></path>
		<path d="M25.2,25.2 L226.8,25.2 L226.8,226.8 L25.2,226.8 L25.2,25.2 Z"></path>
	</g>
</svg>
